X: 306
T: I'll Tell Me Ma
B: steve song book
B: max
M:2/4
Q: 1/4=91
K:Dmajor
V:1 
"D"A2d2 f2>f2| g2f2 f2>g2| "A7"f2e2 e2>f2| "D"e2d2 d2>d2| A2d2 f2>f2| g2f2 f2>g2| "A7"f2e2 e2>f2| "D"e2d2 d4|
 a2a2 a2<f2| "G"g2g2 g2<e2| "D"f2>f2 f2d2| "A7"e2c2 B2<A2| "D"a2a2 a2<f2| "G"g2g2 g4| "D"f2f2 "A7"e2f2| "D"e2d2 d4||
W: I'll tell me ma, when I go home
W: The boys won't leave the girls alone
W: Pulled me hair, stolen me comb
W: But that's alright, till I go home
W: 
W: She is handsome, she is pretty
W: She is the belle of Dublin city
W: She is a-courting one, two, three
W: Pray, want you tell me who is she?
W: 
W: Albert Mooney says he loves her
W: All the boys are fightin' for her
W: Knock at the door, they're ringin' the bell
W: Say, "Hello, my true love are you well?"
W: 
W: Out she comes white as snow
W: Rings on her fingers, bells on her toes
W: Ol' Jenny Murray says she'll die
W: If she doesn't get the fellow with the roving eye
W: 
W: I'll tell me ma, when I go home
W: The boys won't leave the girls alone
W: Pulled me hair, stolen me comb
W: But that's alright, till I go home
W: 
W: She is handsome, she is pretty
W: She is the belle of Dublin city
W: She is a-courting one, two, three
W: Pray, want you tell me who is she?
W: 
W: Let the wind and the rain and the hail blow high
W: And the snow come travelin' through the sky
W: She's as sweet as apple pie
W: She'll get her own right by and by
W: 
W: When she gets a lad of her own
W: She won't tell her ma when she gets home
W: Let them all come as they will
W: It's Albert Mooney she loves still
W: 
W: I'll tell me ma, when I go home
W: The boys won't leave the girls alone
W: Pulled me hair, stolen me comb
W: But that's alright till I get home
W: 
W: She is handsome, she is pretty
W: She is the belle of Dublin city
W: She is a-courting one, two, three
W: Pray, want you tell me who is she?
W: 
W: Albert Mooney says he loves her
W: All the boys are fightin' for her
W: Knock at the door, they're ringin' the bell
W: Say, "Hello, me true love are you well?"
W: 
W: Out she comes white as snow
W: Rings on her fingers, bells on her toes
W: Ol' Jenny Murray says she'll die
W: If she doesn't get the fellow with the roving eye
W: 
W: I'll tell me ma, when I go home
W: The boys won't leave the girls alone
W: Pulled me hair, stolen me comb
W: But that's alright till I get home
W: 
W: She is handsome, she is pretty
W: She is the belle of Dublin city
W: She is a-courting one, two, three
W: Pray, want you tell me who is she?
% abcbook-tune_id 62a420d088258b224f63fe9a


% abcbook-boost 0
% abcbook-tablature 
% abcbook-transpose 
% abcbook-lastupdated 1654950328038
% abcbook-soundfonts 
% abcbook-repeats 1


